public/icons/cv.svg

<svg fill="#1D4D62" height="150px" width="150px" version="1.1" id="Layer_1" xmlns="http://www.w3.org/2000/svg" xmlns:xlink="http://www.w3.org/1999/xlink" viewBox="-39.24 -39.24 470.87 470.87" xml:space="preserve" stroke="" transform="rotate(0)matrix(1, 0, 0, 1, 0, 0)"><g id="SVGRepo_bgCarrier" stroke-width="0"></g><g id="SVGRepo_tracerCarrier" stroke-linecap="round" stroke-linejoin="round" stroke="#CCCCCC" stroke-width="1.569548"></g><g id="SVGRepo_iconCarrier"> <g> <g> <path d="M296.977,0H146.092c-8.404,0-16.291,3.232-22.238,9.18L72.913,60.186c-5.948,5.947-9.18,13.834-9.18,22.238v237.382 c0,17.39,14.158,31.547,31.547,31.547h59.41v30.319c1.487,12.8,13.705,11.378,17.002,9.05l24.501-16.485l24.501,16.485 c4.978,3.168,16.614,2.651,17.002-9.05v-30.319h59.41c17.39,0,31.547-14.158,31.547-31.547V31.483 C328.525,14.158,314.367,0,296.977,0z M126.698,37.236V63.03h-25.794L126.698,37.236z M215.652,361.115l-13.511-9.051 c-1.875-1.228-4.008-1.875-6.141-1.875c-2.069,0-4.267,0.646-6.077,1.875l-13.576,9.115v-50.166c12.8,3.232,26.505,3.232,39.305,0 V361.115z M196.064,291.685c-24.178,0-44.865-14.933-53.527-36.008h17.455c6.012,0,10.925-4.849,10.925-10.925 c0-6.077-4.849-10.925-10.925-10.925h-21.786v-0.065c0-6.788,1.228-13.317,3.426-19.329h44.218 c6.012,0,10.925-4.849,10.925-10.925c0-6.012-4.849-10.925-10.925-10.925h-30.384c10.408-10.343,24.824-16.743,40.663-16.743 c31.935,0,57.859,25.988,57.859,57.859C253.923,265.762,227.999,291.685,196.064,291.685z M307.062,319.806h-0.194h-0.129 c0,5.301-4.331,9.632-9.632,9.632h-59.41v-27.927c22.885-13.964,38.271-39.176,38.271-67.814c0-43.96-35.749-79.644-79.644-79.644 c-43.96,0-79.644,35.749-79.644,79.644c0,28.768,15.386,53.915,38.271,67.943v27.798h-59.41c-5.301,0-9.632-4.331-9.632-9.632 V84.816h52.105c6.012,0,10.925-4.849,10.925-10.925v-52.17H297.43c5.301,0,9.632,4.331,9.632,9.632V319.806z"></path> </g> </g> <g> <g> <path d="M276.42,111.968H115.709c-6.012,0-10.925,4.849-10.925,10.925c0,6.077,4.849,10.925,10.925,10.925H276.42 c6.012,0,10.925-4.849,10.925-10.925C287.345,116.816,282.367,111.968,276.42,111.968z"></path> </g> </g> <g> <g> <path d="M276.42,55.531h-94.642c-6.012,0-10.925,4.849-10.925,10.925c0,6.077,4.848,10.925,10.925,10.925h94.642 c6.012,0,10.925-4.849,10.925-10.925C287.345,60.38,282.367,55.531,276.42,55.531z"></path> </g> </g> </g></svg>

<svg fill="#1D4D62" height="200" width="200" xmlns="http://www.w3.org/2000/svg" viewBox="0 0 392.39 392.39" xml:space="preserve"><path d="M296.98 0H146.09c-8.4 0-16.29 3.23-22.24 9.18l-50.94 51a31.19 31.19 0 0 0-9.18 22.24v237.39a31.59 31.59 0 0 0 31.55 31.54h59.41v30.32c1.49 12.8 13.7 11.38 17 9.05l24.5-16.48 24.5 16.48c4.98 3.17 16.62 2.65 17-9.05v-30.32h59.42a31.59 31.59 0 0 0 31.54-31.54V31.48A31.77 31.77 0 0 0 296.98 0zM126.7 37.24v25.79h-25.8l25.8-25.8zm88.95 323.88-13.5-9.06c-1.88-1.22-4.02-1.87-6.15-1.87-2.07 0-4.27.65-6.08 1.87l-13.57 9.12V311a80.88 80.88 0 0 0 39.3 0v50.1zm-19.59-69.44c-24.17 0-44.86-14.93-53.52-36h17.45c6.01 0 10.93-4.85 10.93-10.93s-4.85-10.92-10.93-10.92h-21.78v-.07c0-6.79 1.22-13.32 3.42-19.33h44.22a10.91 10.91 0 1 0 0-21.85h-30.38a57.58 57.58 0 0 1 40.66-16.74 57.93 57.93 0 0 1 57.86 57.86c-.07 32.06-26 57.99-57.93 57.99zm111 28.13h-.32c0 5.3-4.33 9.63-9.63 9.63H237.7V301.5c22.88-13.96 38.27-39.18 38.27-67.81 0-43.96-35.75-79.65-79.65-79.65-43.96 0-79.64 35.75-79.64 79.65 0 28.76 15.39 53.91 38.27 67.94v27.8h-59.4a9.66 9.66 0 0 1-9.64-9.63v-235H138c6.02 0 10.93-4.84 10.93-10.92V21.72h148.49c5.3 0 9.63 4.33 9.63 9.63v288.46z"/><path d="M276.42 111.97H115.71a10.91 10.91 0 0 0-10.93 10.92c0 6.08 4.85 10.93 10.93 10.93h160.71c6.01 0 10.93-4.85 10.93-10.93 0-6.07-4.98-10.92-10.93-10.92zM276.42 55.53h-94.64a10.91 10.91 0 0 0-10.93 10.93c0 6.07 4.85 10.92 10.93 10.92h94.64c6.01 0 10.93-4.85 10.93-10.92 0-6.08-4.98-10.93-10.93-10.93z"/></svg>
